images/list.svg

<svg width="56" height="56" viewBox="0 0 56 56" fill="none" xmlns="http://www.w3.org/2000/svg">
<path fill-rule="evenodd" clip-rule="evenodd" d="M16 13H39V43H16L16 13ZM13 13C13 11.3431 14.3431 10 16 10H39C40.6569 10 42 11.3431 42 13V43C42 44.6569 40.6569 46 39 46H16C14.3431 46 13 44.6569 13 43V13ZM22 20C22 20.8284 21.3284 21.5 20.5 21.5C19.6716 21.5 19 20.8284 19 20C19 19.1716 19.6716 18.5 20.5 18.5C21.3284 18.5 22 19.1716 22 20ZM22 27C22 27.8284 21.3284 28.5 20.5 28.5C19.6716 28.5 19 27.8284 19 27C19 26.1716 19.6716 25.5 20.5 25.5C21.3284 25.5 22 26.1716 22 27ZM20.5 35.5C21.3284 35.5 22 34.8284 22 34C22 33.1716 21.3284 32.5 20.5 32.5C19.6716 32.5 19 33.1716 19 34C19 34.8284 19.6716 35.5 20.5 35.5ZM24 20C24 19.1716 24.6716 18.5 25.5 18.5H33.5C34.3284 18.5 35 19.1716 35 20C35 20.8284 34.3284 21.5 33.5 21.5H25.5C24.6716 21.5 24 20.8284 24 20ZM25.5 25.5C24.6716 25.5 24 26.1716 24 27C24 27.8284 24.6716 28.5 25.5 28.5H33.5C34.3284 28.5 35 27.8284 35 27C35 26.1716 34.3284 25.5 33.5 25.5H25.5ZM24 34C24 33.1716 24.6716 32.5 25.5 32.5H33.5C34.3284 32.5 35 33.1716 35 34C35 34.8284 34.3284 35.5 33.5 35.5H25.5C24.6716 35.5 24 34.8284 24 34Z" fill="white"/>
</svg>

<?xml version="1.0" encoding="utf-8"?>
<!-- Generator: Adobe Illustrator 27.0.0, SVG Export Plug-In . SVG Version: 6.00 Build 0)  -->
<svg version="1.1" id="圖層_1" xmlns="http://www.w3.org/2000/svg" xmlns:xlink="http://www.w3.org/1999/xlink" x="0px" y="0px"
	 viewBox="0 0 56 56" style="enable-background:new 0 0 56 56;" xml:space="preserve">
<style type="text/css">
	.st0{fill-rule:evenodd;clip-rule:evenodd;fill:#5B5B5B;}
</style>
<path class="st0" d="M16,13h23v30H16V13z M13,13c0-1.7,1.3-3,3-3h23c1.7,0,3,1.3,3,3v30c0,1.7-1.3,3-3,3H16c-1.7,0-3-1.3-3-3V13z
	 M22,20c0,0.8-0.7,1.5-1.5,1.5S19,20.8,19,20s0.7-1.5,1.5-1.5S22,19.2,22,20z M22,27c0,0.8-0.7,1.5-1.5,1.5S19,27.8,19,27
	s0.7-1.5,1.5-1.5S22,26.2,22,27z M20.5,35.5c0.8,0,1.5-0.7,1.5-1.5s-0.7-1.5-1.5-1.5S19,33.2,19,34S19.7,35.5,20.5,35.5z M24,20
	c0-0.8,0.7-1.5,1.5-1.5h8c0.8,0,1.5,0.7,1.5,1.5s-0.7,1.5-1.5,1.5h-8C24.7,21.5,24,20.8,24,20z M25.5,25.5c-0.8,0-1.5,0.7-1.5,1.5
	s0.7,1.5,1.5,1.5h8c0.8,0,1.5-0.7,1.5-1.5s-0.7-1.5-1.5-1.5H25.5z M24,34c0-0.8,0.7-1.5,1.5-1.5h8c0.8,0,1.5,0.7,1.5,1.5
	s-0.7,1.5-1.5,1.5h-8C24.7,35.5,24,34.8,24,34z"/>
</svg>
